X: 1
T:Another Jig Will Do
R:Slip jig
O:Ireland
M:9/8
K:D
ABA A2G F2G | ABA AGF G2E | \
ABA A2G F2G | A2d d2c d3 :: \
A2g f2d e2c | A2B =c2B c2B | \
A2g f2d e2^c | A2d d2c d3 | \
A2g f2d e2c | A2B =c2B c2^c | \
d2A A2G F2G | A2d d2c d3 :|
